workspaces/osm/styles/symbols/museum.svg

<svg width="14" height="14" version="1.1" viewBox="0 0 14 14" xmlns="http://www.w3.org/2000/svg"><rect id="a" width="14" height="14" fill="none" visibility="hidden"/><path id="b" d="m7 1c-2 0.66667-4 1.3333-6 2v1h12v-1c-2-0.66667-4-1.3333-6-2zm-6 4v1h1v5h-1c-0.33333 0.66667-0.66667 1.3333-1 2h14c-0.33333-0.66667-0.66667-1.3333-1-2h-1v-5h1v-1h-12zm4 1c0.57896 0.024916 1.0671 0.60246 1 1.1782v3.8218h-2c0.003818-1.366-0.0076533-2.7325 0.0057662-4.0981 0.060389-0.48043 0.50734-0.8948 0.99423-0.90187zm4 0c0.58503 0.00579 1.0719 0.58111 1 1.1584v3.8416h-2c0.0037744-1.366-0.0075659-2.7325 0.0057003-4.0981 0.059077-0.48172 0.50617-0.89632 0.9943-0.90187z"/></svg>

<?xml version="1.0" encoding="UTF-8" standalone="no"?>
<!-- Created with Inkscape (http://www.inkscape.org/) -->

<svg
   xmlns="http://www.w3.org/2000/svg"
   version="1.1"
   width="14"
   height="14"
   viewBox="0 0 14 14">
  <rect
     width="14"
     height="14"
     x="0"
     y="0"
     id="canvas"
     style="fill:none;stroke:none;visibility:hidden" />
  <path
     d="M 7,1 1,3 1,4 13,4 13,3 z m -6,4 0,1 1,0 0,5 -1,0 -1,2 14,0 -1,-2 -1,0 0,-5 1,0 0,-1 z M 5,6 C 5.497372,6 6,6.5325904 6,7 L 6,11 4,11 4,7 C 4,6.4726661 4.502628,6 5,6 z m 4,0 c 0.503364,0 1,0.4726661 1,1 l 0,4 -2,0 0,-4 C 8,6.4726661 8.496636,6 9,6 z"
     id="museum" />
</svg>
